src/images/icon-char-1.svg

<svg width="71" height="48" viewBox="0 0 71 48" fill="none" xmlns="http://www.w3.org/2000/svg">
<g clip-path="url(#clip0)">
<path d="M18.4126 23.447H11.3343C11.1131 23.447 10.8919 23.2258 10.8919 23.0046C10.8919 22.894 10.8919 22.7834 10.8919 22.6728L23.0578 0.221198C23.1684 0.110599 23.3896 0 23.5002 0H35.0025C35.3343 0 35.5555 0.331797 35.5555 0.552995C35.5555 0.663594 35.5555 0.774194 35.4449 0.884793L25.6015 15.7051H34.6707C35.0025 15.7051 35.2237 15.9263 35.2237 16.1475C35.2237 16.3687 35.1131 16.4793 35.0025 16.5899L7.79509 46.5622C7.57389 46.7834 7.24209 46.7834 7.02089 46.5622C6.7997 46.4516 6.79969 46.1198 6.91029 46.0092L18.4126 23.447ZM12.2191 22.4516H19.1868C19.2974 22.4516 19.408 22.4516 19.408 22.5622C19.6292 22.5622 19.7398 22.7834 19.7398 23.0046C19.7398 23.1152 19.7398 23.2258 19.6292 23.2258L9.56467 43.023L33.5647 16.7005H24.6061C24.6061 16.7005 24.4955 16.7005 24.3849 16.5899C24.1638 16.4793 24.0532 16.1475 24.2743 15.9263C27.4817 10.9493 32.4587 3.53917 34.1177 1.10599L23.832 0.995392L12.2191 22.4516Z" fill="#003067"/>
<path d="M34.4495 7.29956C36.5509 9.06915 38.3205 11.2811 39.6476 13.8249C40.8642 16.2581 41.6384 19.0231 41.8596 21.8986C42.302 27.6498 40.3112 32.9585 36.8827 36.9401C33.3435 41.0323 28.3665 43.6867 22.6154 44.1291C21.8412 44.1291 20.9564 44.1291 20.1822 44.1291C19.2974 44.0185 18.4126 44.0185 17.6384 43.7973L17.8596 42.8019C18.6338 42.9125 19.408 43.0231 20.1822 43.1337C20.9564 43.1337 21.7306 43.1337 22.6154 43.0231C28.0347 42.6913 32.7905 40.1475 36.1085 36.2765C39.4264 32.5161 41.196 27.4286 40.8642 22.0092C40.643 19.2443 39.8688 16.5899 38.7629 14.2673C37.5463 11.9447 35.7767 9.84334 33.7859 8.18435L34.4495 7.29956Z" fill="#999999"/>
<path d="M7.24204 38.7097C5.25126 36.9401 3.59227 34.8387 2.48628 32.4056C1.38029 30.083 0.606094 27.5392 0.384896 24.8848C0.0530989 19.4655 1.82268 14.3779 4.91946 10.3964C8.12683 6.41478 12.772 3.64981 18.0807 2.76501L18.1913 3.87101C13.1038 4.6452 8.79043 7.29958 5.69365 11.0599C2.70748 14.8203 1.04849 19.5761 1.49089 24.7742C1.60149 27.318 2.37568 29.7512 3.37107 31.9632C4.47706 34.2858 6.02545 36.2765 7.90563 38.0461L7.24204 38.7097Z" fill="#999999"/>
<path fill-rule="evenodd" clip-rule="evenodd" d="M41.6383 44.3502C41.8595 44.129 43.1867 42.6912 43.5185 42.1382C43.8503 41.6958 44.1821 41.0322 44.1821 40.3686C44.1821 39.3732 43.4079 38.7096 42.5231 38.7096C41.4171 38.7096 40.8641 39.5944 40.8641 40.5898H38.6521C38.7627 38.3779 40.3111 36.9401 42.4125 36.9401C44.9563 36.9401 46.2834 38.5991 46.2834 40.3686C46.2834 42.0276 45.1775 43.2442 44.2927 44.129L42.4125 46.2304H46.394V48H38.4309L41.6383 44.3502Z" fill="#003067"/>
<path fill-rule="evenodd" clip-rule="evenodd" d="M54.6889 44.2396H56.0161V46.0092H54.6889V48H52.6982V46.0092H47.3894V45.0138L52.8088 37.1613H54.6889V44.2396ZM52.6982 44.2396V40.1474L49.9332 44.2396H52.6982Z" fill="#003067"/>
<path fill-rule="evenodd" clip-rule="evenodd" d="M62.431 37.1613L65.3066 44.4608L68.2927 37.1613H70.6153L65.9701 48H64.7536L60.1084 37.1613H62.431Z" fill="#003067"/>
</g>
<defs>
<clipPath id="clip0">
<rect width="71" height="48" fill="white"/>
</clipPath>
</defs>
</svg>

<svg xmlns="http://www.w3.org/2000/svg" width="71" height="48" fill="none" viewBox="0 0 71 48">
	<g clip-path="url(#icon-char-1-a)">
		<path fill="#003067" d="M18.413 23.447h-7.079a.476.476 0 0 1-.442-.442v-.332L23.058.22c.11-.11.332-.221.442-.221h11.502c.332 0 .553.332.553.553 0 .11 0 .221-.11.332l-9.843 14.82h9.069c.331 0 .553.221.553.443 0 .22-.11.331-.221.442L7.794 46.562a.535.535 0 0 1-.774 0c-.221-.11-.221-.442-.11-.553l11.502-22.562zm-6.194-.995h6.968c.11 0 .221 0 .221.11.221 0 .332.221.332.443 0 .11 0 .22-.11.22L9.564 43.024l24-26.323h-8.959s-.11 0-.221-.11c-.221-.11-.332-.442-.11-.664 3.207-4.977 8.184-12.387 9.843-14.82L23.832.996 12.219 22.451z"/>
		<path fill="#999" d="M34.45 7.3c2.1 1.77 3.87 3.981 5.198 6.525 1.216 2.433 1.99 5.198 2.212 8.074.442 5.75-1.549 11.06-4.977 15.041-3.54 4.092-8.517 6.747-14.268 7.19h-2.433c-.885-.111-1.77-.111-2.544-.333l.222-.995 2.322.332c.774 0 1.549 0 2.433-.11 5.42-.333 10.176-2.877 13.494-6.748 3.317-3.76 5.087-8.847 4.755-14.267-.221-2.765-.995-5.42-2.101-7.742-1.217-2.322-2.986-4.424-4.977-6.083l.663-.884zM7.242 38.71c-1.99-1.77-3.65-3.871-4.756-6.304C1.38 30.083.606 27.539.385 24.885c-.332-5.42 1.438-10.507 4.534-14.489 3.208-3.981 7.853-6.746 13.162-7.631l.11 1.106c-5.087.774-9.4 3.429-12.497 7.189-2.987 3.76-4.646 8.516-4.203 13.714.11 2.544.885 4.977 1.88 7.19 1.106 2.322 2.654 4.313 4.535 6.082l-.664.664z"/>
		<path fill="#003067" fill-rule="evenodd" d="M41.638 44.35c.221-.221 1.549-1.659 1.88-2.212.332-.442.664-1.106.664-1.77 0-.995-.774-1.658-1.659-1.658-1.106 0-1.659.884-1.659 1.88h-2.212c.11-2.212 1.66-3.65 3.76-3.65 2.544 0 3.871 1.66 3.871 3.429 0 1.659-1.105 2.875-1.99 3.76l-1.88 2.101h3.981V48h-7.963l3.207-3.65zM54.689 44.24h1.327v1.77H54.69V48h-1.99v-1.99h-5.31v-.996l5.42-7.853h1.88v7.079zm-1.99 0v-4.093l-2.766 4.093h2.765zM62.431 37.161l2.876 7.3 2.986-7.3h2.322L65.97 48h-1.216l-4.646-10.839h2.323z" clip-rule="evenodd"/>
	</g>
	<defs>
		<clipPath id="icon-char-1-a">
			<path fill="#fff" d="M0 0h71v48H0z"/>
		</clipPath>
	</defs>
</svg>
